common/src/main/resources/glyphs/javaee/javaee/gutter/persistenceEmbeddable.svg

<svg xmlns="http://www.w3.org/2000/svg" width="12" height="12" fill="#AED581" viewBox="0 0 24 24"><path d="M16 7V3h-2v4h-4V3H8v4C7 7 6 8 6 9v5.5L9.5 18v3h5v-3l3.5-3.5V9c0-1-1-2-2-2"/></svg>

<!--
  - The MIT License (MIT)
  -
  - Copyright (c) 2015-2022 Elior "Mallowigi" Boukhobza
  -
  - Permission is hereby granted, free of charge, to any person obtaining a copy
  - of this software and associated documentation files (the "Software"), to deal
  - in the Software without restriction, including without limitation the rights
  - to use, copy, modify, merge, publish, distribute, sublicense, and/or sell
  - copies of the Software, and to permit persons to whom the Software is
  - furnished to do so, subject to the following conditions:
  -
  - The above copyright notice and this permission notice shall be included in all
  - copies or substantial portions of the Software.
  -
  - THE SOFTWARE IS PROVIDED "AS IS", WITHOUT WARRANTY OF ANY KIND, EXPRESS OR
  - IMPLIED, INCLUDING BUT NOT LIMITED TO THE WARRANTIES OF MERCHANTABILITY,
  - FITNESS FOR A PARTICULAR PURPOSE AND NONINFRINGEMENT. IN NO EVENT SHALL THE
  - AUTHORS OR COPYRIGHT HOLDERS BE LIABLE FOR ANY CLAIM, DAMAGES OR OTHER
  - LIABILITY, WHETHER IN AN ACTION OF CONTRACT, TORT OR OTHERWISE, ARISING FROM,
  - OUT OF OR IN CONNECTION WITH THE SOFTWARE OR THE USE OR OTHER DEALINGS IN THE
  - SOFTWARE.
  -
  -
  -->


<svg xmlns="http://www.w3.org/2000/svg" version="1.1" width="12px" height="12px" viewBox="0 0 24 24"
     fill="#AED581">
  <path d="M16,7V3H14V7H10V3H8V7H8C7,7 6,8 6,9V14.5L9.5,18V21H14.5V18L18,14.5V9C18,8 17,7 16,7Z" />
</svg>
